!! 00000] TT[WS
!!!OTL: NÅher  cai shiliu
!!!ARE: Asia, China,ˇShanxi Dingxiang
!! Ethnic Group: Han
!! WI, 188 (2)
!!!SCT: J0224
!!!YEM: Copyright 1995, estate of Helmut Schaffrath.
**kern
*ICvox
*Ivox
*M2/4
*k[f#c#g#]
*A:
{8b
16b
16ee
16b
16a
16f#
16a
=1
2b
=2
8ee
16b
16cc#
16b
16a
8f#
=3
2e}
=4
{16f#
16a
4b
16b
16ee
=5
16b
16a
16g#
16f#
8.e
16f#
=6
8a
16a
16f#
16e
16f#
16e
16c#
=7
2B}
==
!!!AGN: Xiaodiao. Fengsuge, Qingge
!!!ONB: ESAC (Essen Associative Code) Database: CHINA
!!!AMT: simple duple
!!!AIN: vox
!!!EED: Helmut Schaffrath
!!!EEV: 1.0
*-
